X:201
T: Shiyue wanglang
N: C1693
O: China, Jiangxi, Pingxiang
S: IV, 262]
R: Xiaodiao. Nann qing]
M: 2/4
L: 1/16
K: A
f2f4a2e4 | f12 | f2a2f2c2 | b3cb8
b3cb2c2 | b3cb2c2 | f4a3b | e3fc2e2 | f3af4
e2f2a2f2 | f2e6
f2f2f4 | b6c2 | a4b2a2 | f4e8
e2a2f4 | e8 | f2a2f2c2 | b12
a2b2f4z2
f2 | b3cb2c2 | b2c2b2c2 | f4a2f2 | e3fc2e2 | f12

